X: 1
T: Sentinel -- Hornpipe
B: Ryan's Mammoth Collection of Fiddle Tunes
R: hornpipe
M: 2/4
L: 1/16
Z: Contributed 20000509150031 by Bob Safranekrjs:gsp.org
K: D
vAd | fgfe dcdB | ABAG FGFE | DCDE FEFG | ABA^G .A2(ef) |
      gagf efed | cdcB ABAG | FAdf eABc | d2e2d2 :|
|: vcd | .eAAA .fAAA | .g.A.g.A .eAAA | dFAd cEAc | dcdf eagf |
         .eAAA .fAAA | .g.A.f.A .eAAA | dFAd cEAc | d2f2d2 :|
